X:454
T: IM MAIEN IM MAIEN ISTS LIEBLICH
N: E0394
O: Europa, Mitteleuropa, Deutschland
R: Liebes - Lied, Jahreszeiten, Fruehling
M: 6/8
L: 1/16
K: Eb
A2 | A2e2G2G2B2E2 | G2GBAcB4
B,2 | E2E2G2G2E2AG | F8z2
B2 | B3AG2F2D2
B2 | B3AG2F2D2
B,2 | E4E2G4G2 | B6e4
GA | B4EFG4F2 | E8z2

